dist/icons/svgs/caret-right-outline.svg

<svg xmlns="http://www.w3.org/2000/svg" width="24" height="24" fill="currentcolor" class="icon-caret-right-outline" viewBox="0 0 24 24">
  <path d="M14.8516 12L11.375 8.52341V15.5156L14.8516 12ZM16.6094 11.1406C17.1172 11.6093 17.1172 12.4297 16.6094 12.8984L11.6094 17.8984C11.2578 18.25 10.7109 18.3672 10.2422 18.1718C9.77344 17.9765 9.5 17.5078 9.5 17V6.99997C9.5 6.53122 9.77344 6.06247 10.2422 5.86716C10.7109 5.67185 11.2578 5.78903 11.6094 6.1406L16.6094 11.1406Z"/>
</svg>

<svg xmlns="http://www.w3.org/2000/svg" width="24" height="24" fill="currentColor" class="icon-caret-right-outline" viewBox="0 0 24 24">
  <path d="m14.852 12-3.477-3.477v6.993zm1.757-.86c.508.47.508 1.29 0 1.758l-5 5a1.26 1.26 0 0 1-1.367.274C9.773 17.977 9.5 17.508 9.5 17V7c0-.469.273-.937.742-1.133a1.26 1.26 0 0 1 1.367.274z"/>
</svg>
